data/reddit-mono.svg

<svg width="86.625" height="18.184" viewBox="0 0 86.625 18.184" xmlns="http://www.w3.org/2000/svg"><path transform="translate(0 14.137) scale(.0068359 -.0068359)" d="m262 598v156h282q80 0 142.5 35t98 99 35.5 150q0 129-80 200.5t-206 71.5h-272v164h300q122 0 221.5-50.5t158-145 58.5-226.5q0-126-58-229t-163.5-164-248.5-61zm-118-598v1474h180v-1474zm736 0-362 626 134 108 432-734z"/><path transform="translate(7.875 14.137) scale(.0068359 -.0068359)" d="m610-16q-146 0-257.5 69.5t-174 193-62.5 285.5q0 161 60 283.5t167 191.5 247 69q131 0 231.5-61.5t157.5-171 57-253.5q0-30-3-66t-9-62h-776v140h620q0 93-36 163.5t-99 110.5-145 40q-90 0-159.5-48.5t-109-135-39.5-200.5q0-115 42.5-202.5t118-136.5 173.5-49q68 0 141.5 28.5t130.5 77.5l64-154q-63-48-156.5-80t-183.5-32z"/><path transform="translate(15.75 14.137) scale(.0068359 -.0068359)" d="m1008-16q-75 42-116.5 99.5t-43.5 112.5l32-24h-78l44 118v534l-44 106h22v610h172v-1246q0-51 21-93.5t55-60.5zm-484 0q-128 0-223.5 67.5t-148 190.5-52.5 290q0 165 52.5 288t148 190.5 223.5 67.5q124 0 216.5-68t144-191 51.5-287q0-165-51.5-288t-144-191.5-216.5-68.5zm32 156q85 0 148.5 49t98.5 137 35 206q0 119-35 206.5t-98 135.5-147 48q-86 0-150-48.5t-99-136-35-205.5 34.5-206 98-137 149.5-49z"/><path transform="translate(23.625 14.137) scale(.0068359 -.0068359)" d="m1008-16q-75 42-116.5 99.5t-43.5 112.5l32-24h-78l44 118v534l-44 106h22v610h172v-1246q0-51 21-93.5t55-60.5zm-484 0q-128 0-223.5 67.5t-148 190.5-52.5 290q0 165 52.5 288t148 190.5 223.5 67.5q124 0 216.5-68t144-191 51.5-287q0-165-51.5-288t-144-191.5-216.5-68.5zm32 156q85 0 148.5 49t98.5 137 35 206q0 119-35 206.5t-98 135.5-147 48q-86 0-150-48.5t-99-136-35-205.5 34.5-206 98-137 149.5-49z"/><path transform="translate(31.5 14.137) scale(.0068359 -.0068359)" d="m544 0v1060h172v-1060zm-328 904v156h500v-156zm418 326q-55 0-92.5 37.5t-37.5 92.5 37.5 92.5 92.5 37.5 92.5-37.5 37.5-92.5-37.5-92.5-92.5-37.5z"/><path transform="translate(39.375 14.137) scale(.0068359 -.0068359)" d="m732-16q-109 0-195 44.5t-135.5 123.5-49.5 182v1066h172v-1048q0-91 62.5-149.5t153.5-58.5q63 0 125.5 26.5t108.5 63.5l66-158q-66-42-145.5-67t-162.5-25zm-628 920v156h870v-156z"/><path transform="translate(55.125 14.137) scale(.0068359 -.0068359)" d="m92 0v1474h132l348-680h8l348 680h132v-1474h-176v758l4 298h-8l-274-538h-60l-274 538h-8l4-298v-758z"/><path transform="translate(63 14.137) scale(.0068359 -.0068359)" d="m576-16q-140 0-245.5 69t-164 192-58.5 285 58.5 285.5 164 193 245.5 69.5 245.5-69.5 164-193 58.5-285.5-58.5-285-164-192-245.5-69zm0 160q92 0 158.5 47.5t102 134 35.5 204.5-35.5 205-102 135-158.5 48-158.5-48-102-135-35.5-205 35.5-204.5 102-134 158.5-47.5z"/><path transform="translate(70.875 14.137) scale(.0068359 -.0068359)" d="m156 0v1060h170v-130h40l-70-74q32 96 126.5 158t221.5 62q164 0 260-108t96-288v-680h-172v644q0 123-64.5 197.5t-177.5 74.5q-75 0-133-33.5t-91.5-94.5-33.5-144v-644z"/><path transform="translate(78.75 14.137) scale(.0068359 -.0068359)" d="m576-16q-140 0-245.5 69t-164 192-58.5 285 58.5 285.5 164 193 245.5 69.5 245.5-69.5 164-193 58.5-285.5-58.5-285-164-192-245.5-69zm0 160q92 0 158.5 47.5t102 134 35.5 204.5-35.5 205-102 135-158.5 48-158.5-48-102-135-35.5-205 35.5-204.5 102-134 158.5-47.5z"/></svg>

<?xml version="1.0" encoding="utf-8" ?>
<svg baseProfile="tiny" height="100%" version="1.2" width="100%" xmlns="http://www.w3.org/2000/svg" xmlns:ev="http://www.w3.org/2001/xml-events" xmlns:xlink="http://www.w3.org/1999/xlink"><defs /><g><path d="M262 598V754H544Q624 754 686.5 789.0Q749 824 784.5 888.0Q820 952 820 1038Q820 1167 740.0 1238.5Q660 1310 534 1310H262V1474H562Q684 1474 783.5 1423.5Q883 1373 941.5 1278.5Q1000 1184 1000 1052Q1000 926 942.0 823.0Q884 720 778.5 659.0Q673 598 530 598ZM144 0V1474H324V0ZM880 0 518 626 652 734 1084 0Z" transform="translate(0.0, 72) scale(0.03515625, -0.03515625)" /><path d="M610 -16Q464 -16 352.5 53.5Q241 123 178.5 246.5Q116 370 116 532Q116 693 176.0 815.5Q236 938 343.0 1007.0Q450 1076 590 1076Q721 1076 821.5 1014.5Q922 953 979.0 843.5Q1036 734 1036 590Q1036 560 1033.0 524.0Q1030 488 1024 462H248V602H868Q868 695 832.0 765.5Q796 836 733.0 876.0Q670 916 588 916Q498 916 428.5 867.5Q359 819 319.5 732.5Q280 646 280 532Q280 417 322.5 329.5Q365 242 440.5 193.0Q516 144 614 144Q682 144 755.5 172.5Q829 201 886 250L950 96Q887 48 793.5 16.0Q700 -16 610 -16Z" transform="translate(40.5, 72) scale(0.03515625, -0.03515625)" /><path d="M1008 -16Q933 26 891.5 83.5Q850 141 848 196L880 172H802L846 290V824L802 930H824V1540H996V294Q996 243 1017.0 200.5Q1038 158 1072 140ZM524 -16Q396 -16 300.5 51.5Q205 119 152.5 242.0Q100 365 100 532Q100 697 152.5 820.0Q205 943 300.5 1010.5Q396 1078 524 1078Q648 1078 740.5 1010.0Q833 942 884.5 819.0Q936 696 936 532Q936 367 884.5 244.0Q833 121 740.5 52.5Q648 -16 524 -16ZM556 140Q641 140 704.5 189.0Q768 238 803.0 326.0Q838 414 838 532Q838 651 803.0 738.5Q768 826 705.0 874.0Q642 922 558 922Q472 922 408.0 873.5Q344 825 309.0 737.5Q274 650 274 532Q274 414 308.5 326.0Q343 238 406.5 189.0Q470 140 556 140Z" transform="translate(81.0, 72) scale(0.03515625, -0.03515625)" /><path d="M1008 -16Q933 26 891.5 83.5Q850 141 848 196L880 172H802L846 290V824L802 930H824V1540H996V294Q996 243 1017.0 200.5Q1038 158 1072 140ZM524 -16Q396 -16 300.5 51.5Q205 119 152.5 242.0Q100 365 100 532Q100 697 152.5 820.0Q205 943 300.5 1010.5Q396 1078 524 1078Q648 1078 740.5 1010.0Q833 942 884.5 819.0Q936 696 936 532Q936 367 884.5 244.0Q833 121 740.5 52.5Q648 -16 524 -16ZM556 140Q641 140 704.5 189.0Q768 238 803.0 326.0Q838 414 838 532Q838 651 803.0 738.5Q768 826 705.0 874.0Q642 922 558 922Q472 922 408.0 873.5Q344 825 309.0 737.5Q274 650 274 532Q274 414 308.5 326.0Q343 238 406.5 189.0Q470 140 556 140Z" transform="translate(121.5, 72) scale(0.03515625, -0.03515625)" /><path d="M544 0V1060H716V0ZM216 904V1060H716V904ZM634 1230Q579 1230 541.5 1267.5Q504 1305 504 1360Q504 1415 541.5 1452.5Q579 1490 634 1490Q689 1490 726.5 1452.5Q764 1415 764 1360Q764 1305 726.5 1267.5Q689 1230 634 1230Z" transform="translate(162.0, 72) scale(0.03515625, -0.03515625)" /><path d="M732 -16Q623 -16 537.0 28.5Q451 73 401.5 152.0Q352 231 352 334V1400H524V352Q524 261 586.5 202.5Q649 144 740 144Q803 144 865.5 170.5Q928 197 974 234L1040 76Q974 34 894.5 9.0Q815 -16 732 -16ZM104 904V1060H974V904Z" transform="translate(202.5, 72) scale(0.03515625, -0.03515625)" /><path d="M92 0V1474H224L572 794H580L928 1474H1060V0H884V758L888 1056H880L606 518H546L272 1056H264L268 758V0Z" transform="translate(283.5, 72) scale(0.03515625, -0.03515625)" /><path d="M576 -16Q436 -16 330.5 53.0Q225 122 166.5 245.0Q108 368 108 530Q108 692 166.5 815.5Q225 939 330.5 1008.5Q436 1078 576 1078Q716 1078 821.5 1008.5Q927 939 985.5 815.5Q1044 692 1044 530Q1044 368 985.5 245.0Q927 122 821.5 53.0Q716 -16 576 -16ZM576 144Q668 144 734.5 191.5Q801 239 836.5 325.5Q872 412 872 530Q872 648 836.5 735.0Q801 822 734.5 870.0Q668 918 576 918Q484 918 417.5 870.0Q351 822 315.5 735.0Q280 648 280 530Q280 412 315.5 325.5Q351 239 417.5 191.5Q484 144 576 144Z" transform="translate(324.0, 72) scale(0.03515625, -0.03515625)" /><path d="M156 0V1060H326V930H366L296 856Q328 952 422.5 1014.0Q517 1076 644 1076Q808 1076 904.0 968.0Q1000 860 1000 680V0H828V644Q828 767 763.5 841.5Q699 916 586 916Q511 916 453.0 882.5Q395 849 361.5 788.0Q328 727 328 644V0Z" transform="translate(364.5, 72) scale(0.03515625, -0.03515625)" /><path d="M576 -16Q436 -16 330.5 53.0Q225 122 166.5 245.0Q108 368 108 530Q108 692 166.5 815.5Q225 939 330.5 1008.5Q436 1078 576 1078Q716 1078 821.5 1008.5Q927 939 985.5 815.5Q1044 692 1044 530Q1044 368 985.5 245.0Q927 122 821.5 53.0Q716 -16 576 -16ZM576 144Q668 144 734.5 191.5Q801 239 836.5 325.5Q872 412 872 530Q872 648 836.5 735.0Q801 822 734.5 870.0Q668 918 576 918Q484 918 417.5 870.0Q351 822 315.5 735.0Q280 648 280 530Q280 412 315.5 325.5Q351 239 417.5 191.5Q484 144 576 144Z" transform="translate(405.0, 72) scale(0.03515625, -0.03515625)" /></g></svg>
